X:2872
T: Bipopulär shottis
R: Shottis
C: Kalle Eriksson
S: Utlärd av Kerstin Ivares
Z: Karin Arén
M: 4/4
L: 1/8
K: G
|: g2d2g2d2 | g>b g>d [e2e2][e2e2] | e>g e>c d2 (B2  {B)cBA}|B>d B>G {G}A2 A2 |
g2d2g2d>(g |g)>b g>d [e2e2][e2e2] | e>g e>c (3dcB B>d |1 B>A (3FAF G2 z>f :|2 B>A (3FAF G4|:  
[K:Dm]A2D2F2E2 | A>D F<F G2 A2 | A2D2F2E2 | z2 A,>^C C<D D2 |
A2D2A2D>(c | c)>=B A>F ^GA [A2A2] | A>B A<G FE D<F | E2 F<E D4 :|

